assets/images/payments/paybox-dark.svg

<svg width="100" height="60" viewBox="0 0 100 60" version="1.1" xmlns="http://www.w3.org/2000/svg" xmlns:xlink="http://www.w3.org/1999/xlink"><title>Paybox-dark</title><desc>Created with Sketch.</desc><g id="Dark-Payment-badges" stroke="none" stroke-width="1" fill="none" fill-rule="evenodd" transform="translate(-770.000000, -1289.000000)"><g id="Paybox-dark" transform="translate(770.000000, 1289.000000)"><rect id="Rectangle" fill="#005992" x="0" y="0" width="100" height="60" rx="4"/><path d="M17.1343797,19.5598579 L15.7399638,19.5598579 L15.7399638,26.7240804 L17.1343797,26.7240804 C19.622986,26.7240804 21.4534569,25.7730492 21.4534569,23.02598 C21.4534569,20.3673974 19.4500907,19.5598579 17.1343797,19.5598579 M17.2788657,28.6341145 L15.7399638,28.6341145 L15.7399638,36.2343924 L13.6257935,36.2343924 L13.6257935,17.6498238 L17.0246774,17.6498238 C20.6515438,17.6498238 23.5333944,18.9213198 23.5333944,23.02598 C23.5333944,26.8699636 20.8506449,28.6341145 17.2788657,28.6341145" id="Fill-7" fill="#FFF"/><path d="M31.4659596,31.2265315 C30.8655085,30.360001 29.4387485,29.7812511 28.5809612,29.7812511 C26.9606088,29.7812511 25.6755018,30.5011012 25.6755018,32.3242431 C25.6755018,33.8564158 26.9267695,34.6958423 28.3582513,34.6958423 C29.4387485,34.6958423 31.4659596,33.7105326 31.4659596,32.4693292 L31.4659596,31.2265315 L31.4659596,31.2265315 Z M32.1529764,36.0510419 C31.9223969,36.0510419 31.8932794,35.7632613 31.8932794,35.7632613 L31.6099735,34.9533302 C30.6687683,35.9099417 29.5536448,36.4281062 28.2142374,36.4281062 C25.8179417,36.4281062 23.5333944,35.0410196 23.5333944,32.382437 C23.5333944,29.55007 25.6180536,28.0760912 28.3000162,28.0760912 C29.4678661,28.0760912 30.5507242,28.450764 31.4659596,29.1753972 L31.4659596,27.6990269 C31.4659596,25.8232713 30.1493741,25.0420386 28.4369474,25.0420386 C26.4120971,25.0420386 25.1907339,25.8527668 25.1907339,25.8527668 L24.8177145,24.7534608 C25.9005726,23.8869303 27.2958541,23.3344872 28.6698878,23.3344872 C31.3502764,23.3344872 33.5451102,24.6362759 33.5451102,27.5850307 L33.5451102,36.0510419 L32.1529764,36.0510419 L32.1529764,36.0510419 Z" id="Fill-8" fill="#FFF"/><path d="M36.521396,23.6334283 L39.2844155,31.2592158 C39.5999868,32.1105999 39.9163451,33.124608 40.1264636,33.8970718 L40.17919,33.8970718 C40.4168522,33.124608 40.6789101,32.1377039 40.9960554,31.2050078 L43.5221996,23.6334283 L45.9696478,23.6334283 L42.4952158,32.8312472 C40.8370893,37.2571694 39.7054396,39.5235414 38.1267961,40.9361376 C36.9683898,41.9230417 35.8627098,42.322427 35.2835066,42.4284514 L34.7050904,40.4570347 C35.2835066,40.2960051 36.0468587,39.9237238 36.7315146,39.3098981 C37.3634441,38.8028941 38.1267961,37.8965047 38.6792427,36.6959574 C38.7846954,36.4568045 38.8633915,36.2957749 38.8633915,36.1371369 C38.8633915,36.0032113 38.8098782,35.8166721 38.6792427,35.5504152 L33.9944648,23.6334283 L36.521396,23.6334283" id="Fill-9" fill="#FFF"/><path d="M49.2984922,30.9523029 C49.2984922,31.3142209 49.3283967,31.6251196 49.4165363,31.9368155 C49.885565,33.6204516 51.1061412,34.6575779 52.8374551,34.6575779 C55.5965398,34.6575779 57.0351042,32.5578158 57.0351042,29.9925028 C57.0351042,27.247028 55.4501651,25.1743699 52.77922,25.1743699 C50.8425094,25.1743699 49.7974254,26.3669454 49.4165363,27.7907021 C49.3283967,28.1016008 49.2984922,28.464316 49.2984922,28.7760119 L49.2984922,30.9523029 L49.2984922,30.9523029 Z M49.2984922,17.8164336 L49.2984922,25.2780028 L49.3575143,25.2780028 C49.9744915,24.2934902 51.0770237,23.3863037 53.2773662,23.3863037 C56.7132372,23.3863037 59.3109949,25.9253098 59.2826643,30.1224425 C59.2826643,33.9313504 56.9760821,36.4958662 53.542572,36.4958662 C51.2241854,36.4958662 49.885565,35.4340275 49.0930954,34.0349833 L49.0348603,34.0349833 L48.9176031,36.2112743 L47.031258,36.2112743 C47.1201846,35.3559042 47.1493021,34.0987574 47.1493021,32.9858994 L47.1493021,17.8164336 L49.2984922,17.8164336 L49.2984922,17.8164336 Z" id="Fill-10" fill="#FFF"/><path d="M66.6919006,35.1884972 C69.2747061,35.1884972 70.7353054,32.7794308 70.7353054,29.8769122 C70.7353054,27.3363117 69.4242286,24.6809178 66.7100007,24.6809178 C63.9949858,24.6809178 62.6477089,27.2414477 62.6477089,30.0100407 C62.6477089,32.7029018 64.1075212,35.1884972 66.6722266,35.1884972 L66.6919006,35.1884972 L66.6919006,35.1884972 Z M66.6171393,36.5341306 C63.2646862,36.5341306 60.5780019,33.916204 60.5780019,30.0483051 C60.5780019,25.9898811 63.4142087,23.3344872 66.784762,23.3344872 C70.2481766,23.3344872 72.8412126,26.0082162 72.8412126,29.8011805 C72.8412126,34.1824609 69.8365961,36.5341306 66.6352394,36.5341306 L66.6171393,36.5341306 L66.6171393,36.5341306 Z" id="Fill-11" fill="#FFF"/><path d="M75.9662341,23.6334283 L77.7337481,26.3318697 C78.1949072,27.0317904 78.5789441,27.6806918 78.9889507,28.3814097 L79.0652859,28.3814097 C79.4760794,27.6288754 79.8852991,26.9807711 80.2945187,26.3055629 L82.03685,23.6334283 L84.4701329,23.6334283 L80.2433662,29.7047222 L84.5984075,36.1913449 L82.03685,36.1913449 L80.2181835,33.3637609 C79.7318417,32.6367362 79.3218351,31.9368155 78.8858588,31.183484 L78.8354933,31.183484 C78.4254867,31.9368155 77.9902974,32.6112266 77.5283513,33.3637609 L75.7356546,36.1913449 L73.2512192,36.1913449 L77.6574129,29.7828454 L73.455829,23.6334283 L75.9662341,23.6334283" id="Fill-12" fill="#FFF"/></g></g></svg>

<svg width="100" height="60" xmlns="http://www.w3.org/2000/svg"><g fill="none" fill-rule="evenodd"><rect fill="#005992" width="100" height="60" rx="4"/><path d="M17.134 19.56H15.74v7.164h1.394c2.489 0 4.32-.951 4.32-3.698 0-2.659-2.004-3.466-4.32-3.466m.145 9.074H15.74v7.6h-2.114V17.65h3.399c3.627 0 6.508 1.271 6.508 5.376 0 3.844-2.682 5.608-6.254 5.608m14.187 2.593c-.6-.867-2.027-1.446-2.885-1.446-1.62 0-2.905.72-2.905 2.543 0 1.532 1.25 2.372 2.682 2.372 1.08 0 3.108-.985 3.108-2.227v-1.242zm.687 4.824c-.23 0-.26-.288-.26-.288l-.283-.81c-.941.957-2.056 1.475-3.396 1.475-2.396 0-4.68-1.387-4.68-4.046 0-2.832 2.084-4.306 4.766-4.306 1.168 0 2.25.375 3.166 1.1v-1.477c0-1.876-1.317-2.657-3.03-2.657-2.024 0-3.245.81-3.245.81l-.373-1.099c1.083-.866 2.478-1.419 3.852-1.419 2.68 0 4.875 1.302 4.875 4.251v8.466h-1.392zm4.368-12.418l2.763 7.626c.316.852.632 1.866.842 2.638h.053c.238-.772.5-1.76.817-2.692l2.526-7.572h2.448l-3.475 9.198c-1.658 4.426-2.79 6.693-4.368 8.105-1.159.987-2.264 1.386-2.843 1.492l-.579-1.971c.579-.161 1.342-.533 2.027-1.147.631-.507 1.395-1.413 1.947-2.614.106-.24.184-.4.184-.559 0-.134-.053-.32-.184-.587l-4.685-11.917h2.527m12.777 7.319c0 .362.03.673.119.985.469 1.683 1.69 2.72 3.42 2.72 2.76 0 4.198-2.1 4.198-4.664 0-2.746-1.585-4.819-4.256-4.819-1.936 0-2.982 1.193-3.362 2.617a3.72 3.72 0 00-.119.985v2.176zm0-13.136v7.462h.06c.616-.985 1.719-1.892 3.92-1.892 3.435 0 6.033 2.54 6.005 6.736 0 3.81-2.307 6.374-5.74 6.374-2.319 0-3.657-1.062-4.45-2.461h-.058l-.117 2.176H47.03c.09-.855.118-2.112.118-3.225v-15.17h2.15zm17.394 17.372c2.583 0 4.043-2.409 4.043-5.311 0-2.54-1.31-5.196-4.025-5.196-2.715 0-4.062 2.56-4.062 5.329 0 2.693 1.46 5.178 4.024 5.178h.02zm-.075 1.346c-3.352 0-6.039-2.618-6.039-6.486 0-4.058 2.836-6.714 6.207-6.714 3.463 0 6.056 2.674 6.056 6.467 0 4.381-3.004 6.733-6.206 6.733h-.018zm9.349-12.901l1.768 2.699c.46.7.845 1.349 1.255 2.05h.076c.411-.753.82-1.401 1.23-2.076l1.742-2.673h2.433l-4.227 6.072 4.355 6.486h-2.561l-1.819-2.827a38.396 38.396 0 01-1.332-2.18h-.05c-.41.753-.846 1.427-1.308 2.18l-1.792 2.827H73.25l4.406-6.408-4.201-6.15h2.51" fill="#FFF"/></g></svg>
